img/icons/misc/mail.svg

<svg fill="none" viewBox="0 0 16 16" xmlns="http://www.w3.org/2000/svg"><path d="m0 4v8c0 1.1 0.895 2 2 2h12c1.1 0 2-0.895 2-2v-8c0-1.1-0.895-2-2-2h-12c-1.1 0-2 0.895-2 2zm1 8v-7.12l6.74 4.05c0.158 0.0952 0.357 0.0952 0.515 0l6.74-4.05v7.12c0 0.552-0.448 1-1 1h-12c-0.552 0-1-0.448-1-1zm13-9c0.46 0 0.847 0.31 0.964 0.733l-6.96 4.18-6.96-4.18c0.117-0.423 0.504-0.733 0.964-0.733h12z" clip-rule="evenodd" fill="#000" fill-rule="evenodd"/></svg>

<svg xmlns="http://www.w3.org/2000/svg" viewBox="0 0 16 16" fill="none">
  <path fill="#000" fill-rule="evenodd"
    d="M0 4v8a2 2 0 0 0 2 2h12a2 2 0 0 0 2-2V4a2 2 0 0 0-2-2H2a2 2 0 0 0-2 2Zm1 8V4.878l6.743 4.05a.5.5 0 0 0 .515 0L15 4.879V12a1 1 0 0 1-1 1H2a1 1 0 0 1-1-1Zm13-9a1 1 0 0 1 .964.733L8 7.917 1.036 3.733A1 1 0 0 1 2 3h12Z"
    clip-rule="evenodd" />
</svg>
